picto/sectors-g-it-small.svg

<svg class="color-immutable" width="24" height="24" viewBox="0 0 24 24" fill="none" xmlns="http://www.w3.org/2000/svg"><path d="M0 22.5V1.5C0 0.675 0.675 0 1.5 0H22.5C23.325 0 24 0.675 24 1.5V22.5C24 23.325 23.325 24 22.5 24H1.5C0.675 24 0 23.325 0 22.5Z" fill="#2D327D"/><path d="M17.081 14.942V21.002H15.512L15.266 19.718C14.435 20.754 13.315 21.271 11.905 21.271C10.187 21.271 8.831 20.635 7.837 19.364C7.011 18.303 6.599 16.993 6.599 15.434C6.599 13.665 7.137 12.217 8.214 11.089C9.224 10.023 10.529 9.489 12.128 9.489C13.605 9.489 14.807 9.966 15.735 10.919C16.427 11.637 16.824 12.483 16.927 13.457H14.551C14.428 12.852 14.152 12.38 13.724 12.042C13.296 11.704 12.754 11.534 12.097 11.534C11.102 11.534 10.333 11.919 9.79 12.688C9.313 13.36 9.075 14.267 9.075 15.41C9.075 16.528 9.298 17.415 9.744 18.071C10.293 18.876 11.103 19.278 12.174 19.278C12.948 19.278 13.583 19.045 14.077 18.578C14.572 18.112 14.832 17.499 14.858 16.74H12.359V14.94H17.081V14.942Z" fill="white"/><path d="M4.81199 3.666H4.34399C4.33499 3.556 4.29399 3.472 4.22199 3.415C4.14999 3.358 4.04899 3.328 3.91799 3.328C3.80199 3.328 3.71199 3.351 3.64799 3.396C3.58399 3.442 3.55199 3.506 3.55199 3.588C3.55199 3.662 3.58299 3.715 3.64399 3.748C3.70299 3.781 3.85399 3.827 4.09599 3.886C4.35099 3.95 4.52799 4.014 4.62699 4.078C4.80899 4.197 4.89999 4.363 4.89999 4.575C4.89999 4.808 4.80899 4.991 4.62599 5.126C4.46499 5.244 4.24699 5.303 3.97199 5.303C3.66599 5.303 3.42899 5.233 3.25999 5.094C3.09099 4.954 3.00299 4.755 2.99699 4.498H3.48599C3.49299 4.623 3.52499 4.716 3.58299 4.776C3.67299 4.872 3.80899 4.921 3.99099 4.921C4.11399 4.921 4.21099 4.897 4.28299 4.849C4.36399 4.794 4.40499 4.718 4.40499 4.623C4.40499 4.528 4.34799 4.458 4.23399 4.413C4.17099 4.389 4.02299 4.344 3.79099 4.28C3.64499 4.24 3.53099 4.202 3.44899 4.166C3.36699 4.13 3.30199 4.09 3.25199 4.046C3.13799 3.943 3.07999 3.802 3.07999 3.621C3.07999 3.405 3.16999 3.233 3.34899 3.107C3.50199 3 3.70099 2.946 3.94499 2.946C4.15899 2.946 4.33899 2.989 4.48299 3.074C4.69099 3.196 4.80099 3.393 4.81199 3.666Z" fill="white"/><path d="M6.69599 4.726C6.67299 4.82 6.62999 4.909 6.56899 4.992C6.42099 5.194 6.20899 5.295 5.93199 5.295C5.68199 5.295 5.48099 5.216 5.33099 5.058C5.25699 4.981 5.19999 4.888 5.16099 4.78C5.11899 4.664 5.09799 4.543 5.09799 4.417C5.09799 4.173 5.16799 3.968 5.30899 3.802C5.46599 3.616 5.66899 3.524 5.91799 3.524C6.11899 3.524 6.28999 3.586 6.43199 3.71C6.53399 3.799 6.60699 3.909 6.65299 4.04C6.69899 4.171 6.72199 4.335 6.72199 4.533H5.55199C5.55599 4.615 5.56899 4.683 5.58999 4.738C5.64999 4.885 5.76499 4.958 5.93499 4.958C6.01799 4.958 6.08599 4.94 6.13799 4.903C6.18999 4.865 6.23299 4.807 6.26699 4.726H6.69599ZM6.26699 4.232C6.25899 4.151 6.23999 4.084 6.21199 4.031C6.18299 3.978 6.14199 3.937 6.08899 3.906C6.03699 3.875 5.97899 3.86 5.91599 3.86C5.81699 3.86 5.73499 3.893 5.66999 3.96C5.60599 4.026 5.56699 4.117 5.55499 4.232H6.26699Z" fill="white"/><path d="M7.86399 3.566V3.881H7.52999V4.67C7.52999 4.764 7.53899 4.824 7.55599 4.85C7.58199 4.887 7.63899 4.905 7.72799 4.905C7.76299 4.905 7.80799 4.902 7.86299 4.897V5.254C7.76299 5.265 7.66999 5.271 7.58599 5.271C7.45899 5.271 7.36199 5.257 7.29499 5.228C7.19099 5.182 7.12699 5.098 7.10099 4.976C7.08999 4.924 7.08399 4.816 7.08399 4.651V3.881H6.81299V3.566H7.08499V3.172H7.52999V3.566H7.86399Z" fill="white"/><path d="M9.059 3.566V3.881H8.725V4.67C8.725 4.764 8.734 4.824 8.751 4.85C8.777 4.887 8.834 4.905 8.923 4.905C8.958 4.905 9.00299 4.902 9.05799 4.897V5.254C8.95799 5.265 8.865 5.271 8.781 5.271C8.654 5.271 8.557 5.257 8.49 5.228C8.386 5.182 8.32199 5.098 8.29599 4.976C8.28599 4.924 8.27999 4.816 8.27999 4.652V3.881H8.008V3.566H8.27999V3.172H8.725V3.566H9.059Z" fill="white"/><path d="M10.065 3.52299C10.309 3.52299 10.508 3.604 10.663 3.766C10.816 3.926 10.892 4.139 10.892 4.406C10.892 4.682 10.81 4.90199 10.647 5.06599C10.494 5.21899 10.295 5.295 10.05 5.295C9.78899 5.295 9.57999 5.20999 9.42599 5.03999C9.27899 4.87699 9.20499 4.66699 9.20499 4.40899C9.20499 4.15499 9.27699 3.948 9.41999 3.789C9.57899 3.612 9.79399 3.52299 10.065 3.52299ZM10.042 3.871C9.92399 3.871 9.82999 3.91899 9.76099 4.01399C9.68899 4.10999 9.65399 4.24199 9.65399 4.40899C9.65399 4.58199 9.68899 4.715 9.75899 4.807C9.83099 4.9 9.92899 4.947 10.053 4.947C10.169 4.947 10.261 4.90399 10.328 4.81899C10.405 4.72499 10.443 4.588 10.443 4.40799C10.443 4.24 10.409 4.10899 10.341 4.01599C10.271 3.91899 10.171 3.871 10.042 3.871Z" fill="white"/><path d="M12.23 3.541V3.973C12.158 3.96 12.1 3.953 12.056 3.953C11.89 3.953 11.768 4.023 11.69 4.162C11.646 4.24 11.624 4.37 11.624 4.553V5.248H11.178V3.568H11.603V3.874C11.724 3.646 11.9 3.533 12.131 3.533C12.159 3.534 12.192 3.536 12.23 3.541Z" fill="white"/><path d="M13.941 4.726C13.917 4.82 13.875 4.909 13.813 4.992C13.665 5.194 13.453 5.295 13.176 5.295C12.926 5.295 12.725 5.216 12.575 5.058C12.501 4.981 12.445 4.888 12.406 4.78C12.364 4.664 12.343 4.543 12.343 4.417C12.343 4.173 12.413 3.968 12.554 3.802C12.711 3.616 12.914 3.524 13.163 3.524C13.364 3.524 13.535 3.586 13.677 3.71C13.779 3.799 13.852 3.909 13.898 4.04C13.944 4.171 13.967 4.335 13.967 4.533H12.797C12.801 4.615 12.814 4.683 12.835 4.738C12.895 4.885 13.01 4.958 13.18 4.958C13.263 4.958 13.331 4.94 13.383 4.903C13.435 4.867 13.478 4.808 13.512 4.727H13.941V4.726ZM13.511 4.232C13.503 4.151 13.484 4.084 13.456 4.031C13.427 3.979 13.386 3.937 13.334 3.906C13.282 3.875 13.224 3.86 13.161 3.86C13.062 3.86 12.98 3.893 12.915 3.96C12.85 4.027 12.812 4.117 12.8 4.232H13.511Z" fill="white"/></svg>

<svg class="color-immutable" width="24" height="24" viewBox="0 0 24 24" fill="none" xmlns="http://www.w3.org/2000/svg"><g clip-path="url(#a)"><path d="M0 22.5v-21C0 .675.675 0 1.5 0h21c.825 0 1.5.675 1.5 1.5v21c0 .825-.675 1.5-1.5 1.5h-21C.675 24 0 23.325 0 22.5Z" fill="#2D327D"/><path d="M17.081 14.942v6.06h-1.569l-.246-1.284c-.831 1.036-1.951 1.553-3.361 1.553-1.718 0-3.074-.636-4.068-1.907-.826-1.061-1.238-2.371-1.238-3.93 0-1.769.538-3.217 1.615-4.345 1.01-1.066 2.315-1.6 3.914-1.6 1.477 0 2.679.477 3.607 1.43a4.203 4.203 0 0 1 1.192 2.538h-2.376c-.123-.605-.399-1.077-.827-1.415-.428-.338-.97-.508-1.627-.508-.995 0-1.764.385-2.307 1.154-.477.672-.715 1.579-.715 2.722 0 1.118.223 2.005.669 2.661.549.805 1.359 1.207 2.43 1.207.774 0 1.409-.233 1.903-.7.495-.466.755-1.079.781-1.838h-2.499v-1.8h4.722v.002ZM4.812 3.666h-.468a.34.34 0 0 0-.122-.251.478.478 0 0 0-.304-.087.464.464 0 0 0-.27.068.223.223 0 0 0-.096.192c0 .074.031.127.092.16.059.033.21.079.452.138.255.064.432.128.531.192a.563.563 0 0 1 .273.497.647.647 0 0 1-.274.551c-.161.118-.379.177-.654.177-.306 0-.543-.07-.712-.209-.169-.14-.257-.339-.263-.596h.489c.007.125.039.218.097.278.09.096.226.145.408.145a.52.52 0 0 0 .292-.072.26.26 0 0 0 .122-.226c0-.095-.057-.165-.171-.21a6.388 6.388 0 0 0-.443-.133 2.594 2.594 0 0 1-.342-.114.543.543 0 0 1-.369-.545c0-.216.09-.388.269-.514.153-.107.352-.161.596-.161.214 0 .394.043.538.128.208.122.318.319.329.592ZM6.696 4.726a.75.75 0 0 1-.127.266c-.148.202-.36.303-.637.303-.25 0-.451-.079-.601-.237a.777.777 0 0 1-.17-.278 1.058 1.058 0 0 1-.063-.363c0-.244.07-.449.211-.615a.76.76 0 0 1 .609-.278.754.754 0 0 1 .735.516c.046.131.069.295.069.493h-1.17c.004.082.017.15.038.205.06.147.175.22.345.22a.343.343 0 0 0 .203-.055.406.406 0 0 0 .129-.177h.429Zm-.429-.494a.544.544 0 0 0-.055-.201.332.332 0 0 0-.296-.171.328.328 0 0 0-.246.1.445.445 0 0 0-.115.272h.712ZM7.864 3.566v.315H7.53v.789c0 .094.009.154.026.18.026.037.083.055.172.055.035 0 .08-.003.135-.008v.357c-.1.011-.193.017-.277.017a.762.762 0 0 1-.291-.043.332.332 0 0 1-.194-.252 1.954 1.954 0 0 1-.017-.325v-.77h-.271v-.315h.272v-.394h.445v.394h.334ZM9.059 3.566v.315h-.334v.789c0 .094.009.154.026.18.026.037.083.055.172.055.035 0 .08-.003.135-.008v.357c-.1.011-.193.017-.277.017a.762.762 0 0 1-.291-.043.332.332 0 0 1-.194-.252 2.115 2.115 0 0 1-.016-.324v-.771h-.272v-.315h.272v-.394h.445v.394h.334ZM10.065 3.523a.79.79 0 0 1 .598.243c.153.16.229.373.229.64 0 .276-.082.496-.245.66a.807.807 0 0 1-.597.229c-.261 0-.47-.085-.624-.255-.147-.163-.221-.373-.221-.631 0-.254.072-.461.215-.62.159-.177.374-.266.645-.266Zm-.023.348a.33.33 0 0 0-.281.143c-.072.096-.107.228-.107.395 0 .173.035.306.105.398.072.093.17.14.294.14a.332.332 0 0 0 .275-.128c.077-.094.115-.231.115-.411 0-.168-.034-.299-.102-.392a.347.347 0 0 0-.299-.145ZM12.23 3.541v.432a1.038 1.038 0 0 0-.174-.02.391.391 0 0 0-.366.209c-.044.078-.066.208-.066.391v.695h-.446v-1.68h.425v.306c.121-.228.297-.341.528-.341.028.001.061.003.099.008ZM13.941 4.726a.752.752 0 0 1-.128.266c-.148.202-.36.303-.637.303-.25 0-.451-.079-.601-.237a.775.775 0 0 1-.169-.278 1.058 1.058 0 0 1-.063-.363c0-.244.07-.449.211-.615a.76.76 0 0 1 .609-.278.754.754 0 0 1 .735.516c.046.131.069.295.069.493h-1.17c.004.082.017.15.038.205.06.147.175.22.345.22a.343.343 0 0 0 .203-.055.39.39 0 0 0 .129-.176h.429v-.001Zm-.43-.494a.544.544 0 0 0-.055-.201.333.333 0 0 0-.295-.171.328.328 0 0 0-.246.1.442.442 0 0 0-.115.272h.711Z" fill="#fff"/></g><defs><clipPath id="a"><path fill="#fff" d="M0 0h24v24H0z"/></clipPath></defs></svg>
